assets/logo.svg

<svg width="508" height="380" viewBox="0 0 508 380" fill="none" xmlns="http://www.w3.org/2000/svg">
<path d="M75.5 70L77.1875 74.9375C71.6042 76.6875 67.6458 79.7292 65.3125 84.0625C63.0208 88.3958 61.875 93.3958 61.875 99.0625V113.25C61.875 117.208 61.125 120.792 59.625 124C58.1667 127.208 55.8333 129.75 52.625 131.625C49.4167 133.5 45.2083 134.438 40 134.438V129.312C45.125 129.312 48.8125 127.875 51.0625 125C53.3125 122.083 54.4375 118.167 54.4375 113.25V99.0625C54.4375 94.6875 55.0625 90.6042 56.3125 86.8125C57.6042 82.9792 59.7708 79.625 62.8125 76.75C65.8958 73.8333 70.125 71.5833 75.5 70ZM77.3125 190L75.5 195.062C70.125 193.438 65.8958 191.188 62.8125 188.312C59.7708 185.479 57.6042 182.167 56.3125 178.375C55.0625 174.583 54.4375 170.5 54.4375 166.125V152C54.4375 148.708 53.9375 145.875 52.9375 143.5C51.9375 141.083 50.375 139.208 48.25 137.875C46.1667 136.542 43.4167 135.875 40 135.875V130.75C45.2083 130.75 49.4167 131.708 52.625 133.625C55.8333 135.5 58.1667 138.042 59.625 141.25C61.125 144.458 61.875 148.042 61.875 152V166.125C61.875 169.917 62.3958 173.396 63.4375 176.562C64.4792 179.729 66.125 182.458 68.375 184.75C70.6667 187.042 73.6458 188.792 77.3125 190Z" fill="#C2C5D0"/>
<path d="M192.312 340H77.3125L192.312 40V340Z" fill="#2770EB"/>
<path fill-rule="evenodd" clip-rule="evenodd" d="M289.752 40H199.752V340H262.312V132.56H289.752V40ZM289.752 140H269.753V340L289.752 340V140Z" fill="#C2C5D0"/>
<path d="M339.752 240H429.752V340H339.752V240Z" fill="#C2C5D0"/>
<path fill-rule="evenodd" clip-rule="evenodd" d="M359.752 140H269.752V340H332.312V232.56H359.752V140ZM359.752 240H339.753V340L359.752 340V240Z" fill="#C2C5D0"/>
<path d="M431.565 70L429.877 74.9375C435.461 76.6875 439.419 79.7292 441.752 84.0625C444.044 88.3958 445.19 93.3958 445.19 99.0625V113.25C445.19 117.208 445.94 120.792 447.44 124C448.898 127.208 451.232 129.75 454.44 131.625C457.648 133.5 461.857 134.438 467.065 134.438V129.312C461.94 129.312 458.252 127.875 456.002 125C453.752 122.083 452.627 118.167 452.627 113.25V99.0625C452.627 94.6875 452.002 90.6042 450.752 86.8125C449.461 82.9792 447.294 79.625 444.252 76.75C441.169 73.8333 436.94 71.5833 431.565 70ZM429.752 190L431.565 195.062C436.94 193.438 441.169 191.188 444.252 188.312C447.294 185.479 449.461 182.167 450.752 178.375C452.002 174.583 452.627 170.5 452.627 166.125V152C452.627 148.708 453.127 145.875 454.127 143.5C455.127 141.083 456.69 139.208 458.815 137.875C460.898 136.542 463.648 135.875 467.065 135.875V130.75C461.857 130.75 457.648 131.708 454.44 133.625C451.232 135.5 448.898 138.042 447.44 141.25C445.94 144.458 445.19 148.042 445.19 152V166.125C445.19 169.917 444.669 173.396 443.627 176.562C442.586 179.729 440.94 182.458 438.69 184.75C436.398 187.042 433.419 188.792 429.752 190Z" fill="#C2C5D0"/>
</svg>

<svg xmlns="http://www.w3.org/2000/svg" fill="none" viewBox="0 0 508 380">
  <path fill="#C2C5D0" d="m75.5 70 1.688 4.938c-5.584 1.75-9.542 4.791-11.876 9.124-2.291 4.334-3.437 9.334-3.437 15v14.188c0 3.958-.75 7.542-2.25 10.75-1.458 3.208-3.792 5.75-7 7.625s-7.417 2.813-12.625 2.813v-5.126c5.125 0 8.813-1.437 11.063-4.312 2.25-2.917 3.374-6.833 3.374-11.75V99.062c0-4.374.626-8.458 1.876-12.25 1.291-3.833 3.458-7.187 6.5-10.062 3.083-2.917 7.312-5.167 12.687-6.75Zm1.813 120-1.813 5.062c-5.375-1.624-9.604-3.874-12.688-6.75-3.041-2.833-5.208-6.145-6.5-9.937-1.25-3.792-1.874-7.875-1.874-12.25V152c0-3.292-.5-6.125-1.5-8.5-1-2.417-2.563-4.292-4.688-5.625-2.083-1.333-4.833-2-8.25-2v-5.125c5.208 0 9.417.958 12.625 2.875 3.208 1.875 5.542 4.417 7 7.625 1.5 3.208 2.25 6.792 2.25 10.75v14.125c0 3.792.52 7.271 1.563 10.437 1.041 3.167 2.687 5.896 4.937 8.188 2.292 2.292 5.27 4.042 8.938 5.25Z"/>
  <path fill="#2770EB" d="M192.312 340h-115l115-300v300Z"/>
  <path fill="#C2C5D0" fill-rule="evenodd" d="M289.752 40h-90v300h62.56V132.56h27.44V40Zm0 100h-19.999v200h19.999V140Z" clip-rule="evenodd"/>
  <path fill="#C2C5D0" d="M339.752 240h90v100h-90V240Z"/>
  <path fill="#C2C5D0" fill-rule="evenodd" d="M359.752 140h-90v200h62.56V232.56h27.44V140Zm0 100h-19.999v100h19.999V240Z" clip-rule="evenodd"/>
  <path fill="#C2C5D0" d="m431.565 70-1.688 4.938c5.584 1.75 9.542 4.791 11.875 9.124 2.292 4.334 3.438 9.334 3.438 15v14.188c0 3.958.75 7.542 2.25 10.75 1.458 3.208 3.792 5.75 7 7.625s7.417 2.813 12.625 2.813v-5.126c-5.125 0-8.813-1.437-11.063-4.312-2.25-2.917-3.375-6.833-3.375-11.75V99.062c0-4.374-.625-8.458-1.875-12.25-1.291-3.833-3.458-7.187-6.5-10.062-3.083-2.917-7.312-5.167-12.687-6.75Zm-1.813 120 1.813 5.062c5.375-1.624 9.604-3.874 12.687-6.75 3.042-2.833 5.209-6.145 6.5-9.937 1.25-3.792 1.875-7.875 1.875-12.25V152c0-3.292.5-6.125 1.5-8.5 1-2.417 2.563-4.292 4.688-5.625 2.083-1.333 4.833-2 8.25-2v-5.125c-5.208 0-9.417.958-12.625 2.875-3.208 1.875-5.542 4.417-7 7.625-1.5 3.208-2.25 6.792-2.25 10.75v14.125c0 3.792-.521 7.271-1.563 10.437-1.041 3.167-2.687 5.896-4.937 8.188-2.292 2.292-5.271 4.042-8.938 5.25Z"/>
</svg>
